X: 1
T: Goldenrod, The
M: 12/8
L: 1/8
R: slide
K: Dmaj
ag | 
f3 fce dAF DFA | dcd bfa g3 gef | g3 gec Ace g3 | fc/d/e dAG F3- FAd |
f3 fce dAF D2 A | dcd bfa g3 Bcd | e3 edf eBd c2 B | Ace gec d3- d ||
FG | 
A3 AFA dfd A2 F | DFA ded c3 E2 F | G3 GFG e2 f e2 d | cBc dAG F3 DFG |
A2 A AFA d2 d AFE | DFA dc=c B3 B2 ^c | ded dcB Ad/e/f a3 | gec ABc d3- d ||
